fs/calendar_empty_20_regular.svg

<svg viewBox="0 0 20 20" fill="none" xmlns="http://www.w3.org/2000/svg" height="1em" width="1em">
  <path d="M14.5 3C15.8807 3 17 4.11929 17 5.5V14.5C17 15.8807 15.8807 17 14.5 17H5.5C4.11929 17 3 15.8807 3 14.5V5.5C3 4.11929 4.11929 3 5.5 3H14.5ZM16 7H4V14.5C4 15.3284 4.67157 16 5.5 16H14.5C15.3284 16 16 15.3284 16 14.5V7ZM14.5 4H5.5C4.67157 4 4 4.67157 4 5.5V6H16V5.5C16 4.67157 15.3284 4 14.5 4Z" fill="#212121"/>
</svg>

<svg viewBox="0 0 20 20" fill="none" xmlns="http://www.w3.org/2000/svg" height="1em" width="1em">
  <path d="M14.5 3A2.5 2.5 0 0 1 17 5.5v9a2.5 2.5 0 0 1-2.5 2.5h-9A2.5 2.5 0 0 1 3 14.5v-9A2.5 2.5 0 0 1 5.5 3h9ZM16 7H4v7.5A1.5 1.5 0 0 0 5.5 16h9a1.5 1.5 0 0 0 1.5-1.5V7Zm-1.5-3h-9A1.5 1.5 0 0 0 4 5.5V6h12v-.5A1.5 1.5 0 0 0 14.5 4Z" fill="#212121"/>
</svg>
